icons/1_Primary/Bitrix24.svg

<svg width="1024" height="1024" viewBox="0 0 1024 1024" fill="none" xmlns="http://www.w3.org/2000/svg">
<g clip-path="url(#clip0_2_1656)">
<path d="M512 1024C794.77 1024 1024 794.77 1024 512C1024 229.23 794.77 0 512 0C229.23 0 0 229.23 0 512C0 794.77 229.23 1024 512 1024Z" fill="#9ABEFF"/>
<path d="M877 499.07H855V477.07H849.09V505H877V499.07ZM852.07 543C843.381 543 834.888 540.424 827.664 535.597C820.44 530.77 814.809 523.909 811.484 515.882C808.159 507.854 807.289 499.022 808.984 490.5C810.679 481.978 814.863 474.151 821.007 468.007C827.151 461.863 834.978 457.679 843.5 455.984C852.021 454.289 860.854 455.159 868.881 458.484C876.908 461.809 883.769 467.44 888.596 474.664C893.424 481.888 896 490.382 896 499.07C895.937 510.702 891.288 521.839 883.064 530.064C874.839 538.289 863.702 542.937 852.07 543ZM852.07 463.17C844.97 463.17 838.029 465.276 832.125 469.22C826.221 473.165 821.62 478.772 818.903 485.332C816.186 491.892 815.475 499.11 816.86 506.074C818.245 513.038 821.664 519.435 826.685 524.455C831.706 529.476 838.102 532.895 845.066 534.28C852.03 535.666 859.248 534.955 865.808 532.238C872.368 529.52 877.975 524.919 881.92 519.015C885.865 513.111 887.97 506.171 887.97 499.07C887.974 494.355 887.048 489.685 885.245 485.327C883.443 480.97 880.798 477.011 877.464 473.676C874.13 470.342 870.17 467.698 865.813 465.895C861.456 464.092 856.786 463.166 852.07 463.17ZM767.59 522.73V452.61H752.81L696.63 525.68V539.62H747.32V567.5H767.59V539.62H784.49V522.72L767.59 522.73ZM747.32 506.26V522.3H733.8C729.58 522.3 721.97 522.72 719.44 522.72L748.16 483.86C748.16 487.24 747.32 497.38 747.32 506.25V506.26ZM615.11 567.08H694.11V549.76H641.72C648.9 521.04 692.83 514.7 692.83 482.6C692.83 465.28 681 452.6 656.5 452.6C643.284 452.707 630.274 455.888 618.5 461.89L624 478C632.45 474.2 641.74 470.4 653.14 470.4C662.43 470.4 670.88 474.2 670.88 484.76C671.29 508.36 619.76 510.05 615.11 567.08ZM538.66 520.19L504.87 473.73H529.37L551.37 504.14L573.76 473.73H598.26L564 520.19L598.64 567.08H574.14L551.75 535.82L528.94 567.08H504.44L538.66 520.19ZM464.74 444.58C464.74 440.772 466.253 437.119 468.946 434.426C471.639 431.733 475.292 430.22 479.1 430.22C482.909 430.22 486.561 431.733 489.254 434.426C491.947 437.119 493.46 440.772 493.46 444.58C493.46 452.18 487.12 458.52 478.68 458.52C470.24 458.52 464.74 452.61 464.74 444.58ZM467.27 473.72H490.92V567.07H467.28L467.27 473.72ZM393.77 473.72H414.04L416.57 484.28C425.02 475.83 432.62 471.61 442.34 471.61C446.973 471.627 451.508 472.944 455.43 475.41L447 495.27C443.827 493.309 440.17 492.27 436.44 492.27C430.1 492.27 425.04 494.8 417.44 501.56V567.5H393.78L393.77 473.72ZM269.17 444.58C269.154 442.69 269.515 440.815 270.23 439.066C270.946 437.317 272.004 435.727 273.34 434.391C274.677 433.054 276.266 431.997 278.016 431.281C279.765 430.565 281.64 430.204 283.53 430.22C291.53 430.22 298.31 436.13 298.31 444.58C298.31 452.18 291.97 458.52 283.53 458.52C275.09 458.52 269.17 452.61 269.17 444.58ZM271.7 473.72H295.35V567.07H271.71L271.7 473.72ZM327 544.27V492.27H310.1V473.73H327V452.19L350.65 445.43V473.73H379L373.09 492.32H350.7V538.32C350.7 547.19 353.7 550.15 359.99 550.15C365.127 550.03 370.117 548.414 374.35 545.5L381.53 561.55C374.77 566.2 363.37 568.73 354.07 568.73C337.18 569.19 327 559.89 327 544.27ZM164 437H202C229.88 437 242.55 453.05 242.55 469.95C242.55 481.35 237.06 491.49 226.92 496.95V497.37C242.13 501.17 251.42 513.42 251.42 528.63C251.42 548.9 236.21 567.07 205.8 567.07H164V437ZM199.06 491.49C212.15 491.49 219.33 484.31 219.33 474.17C219.33 464.46 212.99 456.85 199.06 456.85H188.06V491.49H199.06ZM202.86 547.67C218.49 547.67 227.36 541.76 227.36 528.67C227.36 517.67 218.91 510.93 205.82 510.93H188.08V547.68L202.86 547.67Z" fill="white"/>
</g>
<defs>
<clipPath id="clip0_2_1656">
<rect width="1024" height="1024" fill="white"/>
</clipPath>
</defs>
</svg>

<svg xmlns="http://www.w3.org/2000/svg" viewBox="0 0 1024 1024">
   <circle cx="512" cy="512" r="512" style="fill:#2fc7f7"/>
   <path d="M877 499.07h-22v-22h-5.91V505H877zM852.07 543A43.93 43.93 0 1 1 896 499.07 44.17 44.17 0 0 1 852.07 543zm0-79.83a35.9 35.9 0 1 0 35.9 35.9 35.87 35.87 0 0 0-35.9-35.9zm-84.48 59.56v-70.12h-14.78l-56.18 73.07v13.94h50.69v27.88h20.27v-27.88h16.9v-16.9zm-20.27-16.47v16.04H733.8c-4.22 0-11.83.42-14.36.42l28.72-38.86c0 3.38-.84 13.52-.84 22.39zm-132.21 60.82h79v-17.32h-52.39c7.18-28.72 51.11-35.06 51.11-67.16 0-17.32-11.83-30-36.33-30a85.18 85.18 0 0 0-38 9.29L624 478c8.45-3.8 17.74-7.6 29.14-7.6 9.29 0 17.74 3.8 17.74 14.36.41 23.6-51.12 25.29-55.77 82.32zm-76.45-46.89-33.79-46.46h24.5l22 30.41 22.39-30.41h24.5L564 520.19l34.64 46.89h-24.5l-22.39-31.26-22.81 31.26h-24.5zm-73.92-75.61a14.36 14.36 0 0 1 28.72 0c0 7.6-6.34 13.94-14.78 13.94s-13.94-5.91-13.94-13.94zm2.53 29.14h23.65v93.35h-23.64zm-73.5 0h20.27l2.53 10.56c8.45-8.45 16.05-12.67 25.77-12.67a24.76 24.76 0 0 1 13.09 3.8L447 495.27a20.08 20.08 0 0 0-10.56-3c-6.34 0-11.4 2.53-19 9.29v65.94h-23.66zm-124.6-29.14a14.24 14.24 0 0 1 14.36-14.36c8 0 14.78 5.91 14.78 14.36 0 7.6-6.34 13.94-14.78 13.94s-14.36-5.91-14.36-13.94zm2.53 29.14h23.65v93.35h-23.64zm55.3 70.55v-52h-16.9v-18.54H327v-21.54l23.65-6.76v28.3H379l-5.91 18.59H350.7v46c0 8.87 3 11.83 9.29 11.83a26.42 26.42 0 0 0 14.36-4.65l7.18 16.05c-6.76 4.65-18.16 7.18-27.46 7.18-16.89.46-27.07-8.84-27.07-24.46zM164 437h38c27.88 0 40.55 16.05 40.55 32.95 0 11.4-5.49 21.54-15.63 27v.42c15.21 3.8 24.5 16.05 24.5 31.26 0 20.27-15.21 38.44-45.62 38.44H164zm35.06 54.49c13.09 0 20.27-7.18 20.27-17.32 0-9.71-6.34-17.32-20.27-17.32h-11v34.64zm3.8 56.18c15.63 0 24.5-5.91 24.5-19 0-11-8.45-17.74-21.54-17.74h-17.74v36.75z" style="fill:#fff"/>
</svg>
